24x24/actions/meeting-attending-tentative.svg

<svg xmlns="http://www.w3.org/2000/svg" viewBox="0 0 24 24">
  <defs id="defs3051">
    <style type="text/css" id="current-color-scheme">
      .ColorScheme-Text {
        color:#5d656b;
      }
      </style>
  </defs>
 <path 
     style="fill:currentColor;fill-opacity:0.5;stroke:none" 
     d="M 15 4 C 13.338 4 12 5.338 12 7 C 12 8.662 13.338 10 15 10 C 16.662 10 18 8.662 18 7 C 18 5.338 16.662 4 15 4 z M 9 7 C 7.3380003 7 6 8.3380003 6 10 C 6 11.662 7.3380003 13 9 13 C 10.662 13 12 11.662 12 10 C 12 8.3380003 10.662 7 9 7 z M 15 11 C 14.353654 11 13.744006 11.134157 13.181641 11.361328 L 13.636719 12.275391 C 14.064535 12.114885 14.514485 12 15 12 C 17.21602 12 19 13.78398 19 16 L 15.5 16 L 16 17 L 20 17 L 20 16 C 20 13.22998 17.77002 11 15 11 z M 9 14 C 6.2299834 14 4 16.229983 4 19 L 4 20 L 14 20 L 14 19 C 14 16.229983 11.770017 14 9 14 z M 9 15 C 11.216017 15 13 16.783983 13 19 L 5 19 C 5 16.783983 6.7839834 15 9 15 z "
     class="ColorScheme-Text"
     />
</svg>

<svg xmlns="http://www.w3.org/2000/svg" viewBox="0 0 24 24"><path style="fill:currentColor;fill-opacity:.5;stroke:none;color:#5d656b" d="M15 4c-1.662 0-3 1.338-3 3s1.338 3 3 3 3-1.338 3-3-1.338-3-3-3zM9 7c-1.662 0-3 1.338-3 3s1.338 3 3 3 3-1.338 3-3-1.338-3-3-3zm6 4c-.646 0-1.256.134-1.818.361l.455.914c.428-.16.877-.275 1.363-.275 2.216 0 4 1.784 4 4h-3.5l.5 1h4v-1c0-2.77-2.23-5-5-5zm-6 3c-2.77 0-5 2.23-5 5v1h10v-1c0-2.77-2.23-5-5-5zm0 1c2.216 0 4 1.784 4 4H5c0-2.216 1.784-4 4-4z"/></svg>
